X:440
T: Renma wangxikai
N: C2057
O: China, Anhui Haoxian
S: III, 554]
R: Xiaodiao]
M: 2/4
L: 1/16
K: A
c2e2c2B2 | c2e2c2B2 | A2B2c2B2 | A8
A2B2c2e2 | B2cBA4 | B2G2F2GF | E8
c2c2B2c2 | G2F2E4 | c2c2B2c2 | G2F2E4
A2A4F2 | B8
A2B2c2ec | B2cBA4 | e2c2B2AB | G2F4C2 | E8

